svg/black/pura.svg

<svg xmlns="http://www.w3.org/2000/svg" width="32" height="32" viewBox="0 0 32 32">
  <path fill-rule="evenodd" d="M16,32 C7.163444,32 0,24.836556 0,16 C0,7.163444 7.163444,0 16,0 C24.836556,0 32,7.163444 32,16 C32,24.836556 24.836556,32 16,32 Z M11.191913,8 C11.436982,9.01635651 11.93576,10.1086932 13.0461755,10.4199007 C15.4902056,10.9299007 18.117475,10.0907423 20.4955353,11.0130789 C22.8259859,11.9859801 22.7416562,15.8453267 20.4295656,16.7893466 C18.853942,17.4296236 17.1097491,17.1764454 15.4498858,17.2198118 C14.3506302,17.2596236 13.0681354,17.017287 12.1630991,17.7949503 C11.3899122,18.3808416 11.2433928,19.39 11.2800227,20.2906534 C11.3379824,23.5514898 11.4960218,25 11.4960218,25 C11.4960218,25 13.2108748,24.3561683 13.5849133,23.8171981 C14.5154196,22.6886932 14.1416511,21.1370099 14.2149108,19.8023366 C16.9228198,19.6866336 19.8725579,20.2436435 22.3385479,18.8329901 C25.013427,17.3428019 25.6033747,13.671495 24.4161895,11.06 C23.4671433,9.00915839 21.1036629,8.12663356 18.9564516,8 L11.191913,8 Z M7,12.4308416 L7,13.0493466 C7.36278853,14.1742969 8.28978478,15.1942969 9.54617969,15.2666336 C11.5912414,15.3570988 13.6395431,15.2811187 15.6841548,15.2919603 C15.5302555,13.9283168 14.5629394,12.5936435 13.0899153,12.481495 C11.0636635,12.358505 9.02994178,12.4670099 7,12.4308416 Z"/>
</svg>

<svg xmlns="http://www.w3.org/2000/svg" width="32" height="32"><path fill-rule="evenodd" d="M16 32C7.163 32 0 24.837 0 16S7.163 0 16 0s16 7.163 16 16-7.163 16-16 16zM11.192 8c.245 1.016.744 2.109 1.854 2.42 2.444.51 5.071-.33 7.45.593 2.33.973 2.246 4.832-.066 5.776-1.576.64-3.32.387-4.98.43-1.1.04-2.382-.202-3.287.576-.773.586-.92 1.595-.883 2.496.058 3.26.216 4.709.216 4.709s1.715-.644 2.089-1.183c.93-1.128.557-2.68.63-4.015 2.708-.115 5.658.442 8.124-.969 2.674-1.49 3.264-5.162 2.077-7.773-.949-2.05-3.312-2.933-5.46-3.06h-7.764zM7 12.43v.62c.363 1.124 1.29 2.144 2.546 2.217 2.045.09 4.094.014 6.138.025-.154-1.364-1.121-2.698-2.594-2.81-2.026-.123-4.06-.015-6.09-.051z"/></svg>
